original-svg/npm.svg

<!-- Generated by IcoMoon.io -->
<svg version="1.1" xmlns="http://www.w3.org/2000/svg" width="48" height="48" viewBox="0 0 48 48">
<title>npm</title>
<path d="M24 25.333h-2.667v-5.333h2.667zM48 14.667v16h-24v2.667h-10.667v-2.667h-13.333v-16zM13.333 17.333h-10.667v10.667h5.333v-8h2.667v8h2.667zM26.667 17.333h-10.667v13.333h5.333v-2.667h5.333zM45.333 17.333h-16v10.667h5.333v-8h2.667v8h2.667v-8h2.667v8h2.667z"></path>
</svg>

<?xml version="1.0" encoding="UTF-8"?><svg id="ab" xmlns="http://www.w3.org/2000/svg" width="48" height="48" viewBox="0 0 48 48"><g id="ac"><path d="M24,25.333h-2.667v-5.333h2.667v5.333Zm24-10.666V30.667H24v2.667H13.333v-2.667H0V14.667H48Zm-34.667,2.666H2.666v10.667H7.999v-8h2.667v8h2.667v-10.667Zm13.334,0h-10.667v13.333h5.333v-2.667h5.333l.001-10.666Zm18.666,0H29.333v10.667h5.333v-8h2.667v8h2.667v-8h2.667v8h2.667l-.001-10.667Z"/></g></svg>
